svg/device/aspect_ratio_fill.svg

<?xml version="1.0" encoding="UTF-8"?>
<svg width="24px" height="24px" viewBox="0 0 24 24" version="1.1" xmlns="http://www.w3.org/2000/svg" xmlns:xlink="http://www.w3.org/1999/xlink">
    <title>aspect_ratio_fill</title>
    <g id="Icon" stroke="none" stroke-width="1" fill="none" fill-rule="evenodd">
        <g id="Device" transform="translate(-192.000000, -432.000000)">
            <g id="aspect_ratio_fill" transform="translate(192.000000, 432.000000)">
                <path d="M24,0 L24,24 L0,24 L0,0 L24,0 Z M12.5935,23.2578 L12.5819,23.2595 L12.5109,23.295 L12.4919,23.2987 L12.4767,23.295 L12.4057,23.2595 C12.3958,23.2564 12.387,23.259 12.3821,23.2649 L12.378,23.2758 L12.3609,23.7031 L12.3659,23.7235 L12.3769,23.7357 L12.4805,23.8097 L12.4953,23.8136 L12.5071,23.8097 L12.6107,23.7357 L12.6233,23.7197 L12.6267,23.7031 L12.6096,23.2758 C12.6076,23.2657 12.601,23.2593 12.5935,23.2578 Z M12.8584,23.1453 L12.8445,23.1473 L12.6598,23.2397 L12.6499,23.2499 L12.6472,23.2611 L12.6651,23.6906 L12.6699,23.7034 L12.6784,23.7105 L12.8793,23.8032 C12.8914,23.8069 12.9022,23.803 12.9078,23.7952 L12.9118,23.7812 L12.8777,23.1665 C12.8753,23.1546 12.8674,23.147 12.8584,23.1453 Z M12.143,23.1473 C12.1332,23.1424 12.1222,23.1453 12.1156,23.1526 L12.1099,23.1665 L12.0758,23.7812 C12.0751,23.7927 12.0828,23.8019 12.0926,23.8046 L12.1083,23.8032 L12.3092,23.7105 L12.3186,23.7024 L12.3225,23.6906 L12.3404,23.2611 L12.3372,23.2485 L12.3278,23.2397 L12.143,23.1473 Z" id="MingCute" fill-rule="nonzero"></path>
                <path d="M20,4 C21.1046,4 22,4.89543 22,6 L22,18 C22,19.1046 21.1046,20 20,20 L4,20 C2.89543,20 2,19.1046 2,18 L2,6 C2,4.89543 2.89543,4 4,4 L20,4 Z M18,12 C17.4477,12 17,12.4477 17,13 L17,15 L15,15 C14.4477,15 14,15.4477 14,16 C14,16.5523 14.4477,17 15,17 L18,17 C18.5523,17 19,16.5523 19,16 L19,13 C19,12.4477 18.5523,12 18,12 Z M9,7 L6,7 C5.48716857,7 5.06449347,7.38604429 5.0067278,7.88337975 L5,8 L5,11 C5,11.5523 5.44772,12 6,12 C6.51283143,12 6.93550653,11.613973 6.9932722,11.1166239 L7,11 L7,9 L9,9 C9.55228,9 10,8.55228 10,8 C10,7.48716857 9.61395571,7.06449347 9.11662025,7.0067278 L9,7 Z" id="形状" fill="#09244B"></path>
            </g>
        </g>
    </g>
</svg>

<svg xmlns="http://www.w3.org/2000/svg" width="24" height="24"><g fill="none" fill-rule="evenodd"><path d="M24 0v24H0V0h24ZM12.594 23.258l-.012.002-.071.035-.02.004-.014-.004-.071-.036c-.01-.003-.019 0-.024.006l-.004.01-.017.428.005.02.01.013.104.074.015.004.012-.004.104-.074.012-.016.004-.017-.017-.427c-.002-.01-.009-.017-.016-.018Zm.264-.113-.014.002-.184.093-.01.01-.003.011.018.43.005.012.008.008.201.092c.012.004.023 0 .029-.008l.004-.014-.034-.614c-.003-.012-.01-.02-.02-.022Zm-.715.002a.023.023 0 0 0-.027.006l-.006.014-.034.614c0 .012.007.02.017.024l.015-.002.201-.093.01-.008.003-.011.018-.43-.003-.012-.01-.01-.184-.092Z"/><path fill="#09244B" d="M20 4a2 2 0 0 1 2 2v12a2 2 0 0 1-2 2H4a2 2 0 0 1-2-2V6a2 2 0 0 1 2-2h16Zm-2 8a1 1 0 0 0-1 1v2h-2a1 1 0 1 0 0 2h3a1 1 0 0 0 1-1v-3a1 1 0 0 0-1-1ZM9 7H6a1 1 0 0 0-.993.883L5 8v3a1 1 0 0 0 1.993.117L7 11V9h2a1 1 0 0 0 .117-1.993L9 7Z"/></g></svg>
